X:607
T:
S:Melodien begagnades även som ridmarsch; Johan Jakobsson Halsarve i \
Fardhem har spelat den så för samlaren. % infört rättelse från originalet Fordhem -> Fardhem
R:schottis
O:Gotland, Fardhem
M:2/4
L:1/16
K:C
GF|ECEG c2GF|ECEG e2dc|BGBd fefa|gfed c2GF|
ECEG c2GF|ECEG e2dc|BGBd fagB|c2cc c2:|
|:g2|g2eg c'2eg|gfdf f2e2|g2eg c'2ea|gfde c2:|

